images/mission-and-footer/bonuslogo.svg

<svg width="142" height="13" viewBox="0 0 142 13" fill="none" xmlns="http://www.w3.org/2000/svg">
<path d="M0.724432 2.26278V1.09091H8.90625V2.26278H5.47585V12H4.15483V2.26278H0.724432ZM12.0317 7.07812V12H10.7746V1.09091H12.0317V5.09659H12.1382C12.33 4.67401 12.6176 4.33842 13.0012 4.08984C13.3882 3.83771 13.9031 3.71165 14.5459 3.71165C15.1034 3.71165 15.5917 3.82351 16.0107 4.04723C16.4298 4.2674 16.7547 4.60653 16.9855 5.06463C17.2199 5.51918 17.3371 6.09801 17.3371 6.80114V12H16.08V6.88636C16.08 6.23651 15.9113 5.73402 15.574 5.37891C15.2401 5.02024 14.7767 4.84091 14.1837 4.84091C13.7718 4.84091 13.4024 4.92791 13.0757 5.10192C12.7526 5.27592 12.4969 5.52983 12.3087 5.86364C12.124 6.19744 12.0317 6.60227 12.0317 7.07812ZM23.0673 12.1705C22.2789 12.1705 21.5989 11.9964 21.0272 11.6484C20.459 11.2969 20.0204 10.8068 19.7115 10.1783C19.4061 9.54616 19.2534 8.81108 19.2534 7.97301C19.2534 7.13494 19.4061 6.39631 19.7115 5.7571C20.0204 5.11435 20.4501 4.61364 21.0005 4.25497C21.5545 3.89276 22.2008 3.71165 22.9395 3.71165C23.3656 3.71165 23.7864 3.78267 24.2019 3.92472C24.6174 4.06676 24.9956 4.29759 25.3365 4.61719C25.6774 4.93324 25.949 5.35227 26.1515 5.87429C26.3539 6.39631 26.4551 7.03906 26.4551 7.80256V8.33523H20.1483V7.24858H25.1767C25.1767 6.78693 25.0843 6.375 24.8997 6.01278C24.7186 5.65057 24.4593 5.3647 24.122 5.15518C23.7882 4.94567 23.394 4.84091 22.9395 4.84091C22.4387 4.84091 22.0055 4.9652 21.6397 5.21378C21.2775 5.45881 20.9988 5.77841 20.8034 6.17258C20.6081 6.56676 20.5105 6.98935 20.5105 7.44034V8.16477C20.5105 8.78267 20.617 9.30646 20.8301 9.73615C21.0467 10.1623 21.3468 10.4872 21.7303 10.7109C22.1138 10.9311 22.5595 11.0412 23.0673 11.0412C23.3975 11.0412 23.6958 10.995 23.9622 10.9027C24.2321 10.8068 24.4647 10.6648 24.66 10.4766C24.8553 10.2848 25.0062 10.0469 25.1127 9.76278L26.3272 10.1037C26.1994 10.5156 25.9846 10.8778 25.6827 11.1903C25.3809 11.4993 25.008 11.7408 24.5641 11.9148C24.1202 12.0852 23.6213 12.1705 23.0673 12.1705ZM32.7566 12V1.09091H36.5705C37.3304 1.09091 37.9572 1.2223 38.4508 1.48509C38.9444 1.74432 39.312 2.0941 39.5534 2.53445C39.7949 2.97124 39.9157 3.45597 39.9157 3.98864C39.9157 4.45739 39.8322 4.84446 39.6653 5.14986C39.502 5.45526 39.2853 5.69673 39.0154 5.87429C38.7491 6.05185 38.4597 6.18324 38.1472 6.26847V6.375C38.481 6.39631 38.8166 6.51349 39.1539 6.72656C39.4913 6.93963 39.7736 7.24503 40.0009 7.64276C40.2282 8.04048 40.3418 8.52699 40.3418 9.10227C40.3418 9.64915 40.2175 10.141 39.9689 10.5778C39.7203 11.0146 39.3279 11.3608 38.7917 11.6165C38.2555 11.8722 37.5577 12 36.6983 12H32.7566ZM34.0776 10.8281H36.6983C37.5613 10.8281 38.1738 10.6612 38.536 10.3274C38.9018 9.99006 39.0847 9.58168 39.0847 9.10227C39.0847 8.73295 38.9906 8.39205 38.8024 8.07955C38.6142 7.76349 38.3461 7.51136 37.998 7.32315C37.65 7.13139 37.2381 7.03551 36.7623 7.03551H34.0776V10.8281ZM34.0776 5.88494H36.5279C36.9256 5.88494 37.2843 5.80682 37.6039 5.65057C37.927 5.49432 38.1827 5.27415 38.3709 4.99006C38.5627 4.70597 38.6586 4.37216 38.6586 3.98864C38.6586 3.50923 38.4917 3.10263 38.1578 2.76882C37.824 2.43146 37.2949 2.26278 36.5705 2.26278H34.0776V5.88494ZM45.6658 12.1705C44.9272 12.1705 44.2791 11.9947 43.7216 11.6431C43.1676 11.2915 42.7344 10.7997 42.4219 10.1676C42.1129 9.53551 41.9585 8.79687 41.9585 7.9517C41.9585 7.09943 42.1129 6.35547 42.4219 5.71982C42.7344 5.08416 43.1676 4.59055 43.7216 4.23899C44.2791 3.88743 44.9272 3.71165 45.6658 3.71165C46.4045 3.71165 47.0508 3.88743 47.6048 4.23899C48.1623 4.59055 48.5955 5.08416 48.9045 5.71982C49.217 6.35547 49.3732 7.09943 49.3732 7.9517C49.3732 8.79687 49.217 9.53551 48.9045 10.1676C48.5955 10.7997 48.1623 11.2915 47.6048 11.6431C47.0508 11.9947 46.4045 12.1705 45.6658 12.1705ZM45.6658 11.0412C46.2269 11.0412 46.6886 10.8974 47.0508 10.6097C47.413 10.3221 47.6811 9.94389 47.8551 9.47514C48.0291 9.00639 48.1161 8.49858 48.1161 7.9517C48.1161 7.40483 48.0291 6.89524 47.8551 6.42294C47.6811 5.95064 47.413 5.56889 47.0508 5.2777C46.6886 4.98651 46.2269 4.84091 45.6658 4.84091C45.1048 4.84091 44.6431 4.98651 44.2809 5.2777C43.9187 5.56889 43.6506 5.95064 43.4766 6.42294C43.3026 6.89524 43.2156 7.40483 43.2156 7.9517C43.2156 8.49858 43.3026 9.00639 43.4766 9.47514C43.6506 9.94389 43.9187 10.3221 44.2809 10.6097C44.6431 10.8974 45.1048 11.0412 45.6658 11.0412ZM52.5493 7.07812V12H51.2922V3.81818H52.5067V5.09659H52.6132C52.805 4.68111 53.0961 4.3473 53.4868 4.09517C53.8774 3.83949 54.3817 3.71165 54.9996 3.71165C55.5535 3.71165 56.0383 3.82528 56.4537 4.05256C56.8692 4.27628 57.1924 4.61719 57.4232 5.07528C57.654 5.52983 57.7694 6.10511 57.7694 6.80114V12H56.5123V6.88636C56.5123 6.24361 56.3454 5.7429 56.0116 5.38423C55.6778 5.02202 55.2197 4.84091 54.6373 4.84091C54.2361 4.84091 53.8774 4.92791 53.5613 5.10192C53.2488 5.27592 53.002 5.52983 52.8209 5.86364C52.6398 6.19744 52.5493 6.60227 52.5493 7.07812ZM65.2228 8.65483V3.81818H66.4799V12H65.2228V10.6151H65.1376C64.9458 11.0305 64.6475 11.3839 64.2427 11.6751C63.8379 11.9627 63.3265 12.1065 62.7086 12.1065C62.1973 12.1065 61.7427 11.9947 61.345 11.771C60.9473 11.5437 60.6348 11.2028 60.4075 10.7482C60.1802 10.2901 60.0666 9.71307 60.0666 9.01705V3.81818H61.3237V8.93182C61.3237 9.52841 61.4906 10.0043 61.8244 10.3594C62.1618 10.7145 62.5914 10.892 63.1135 10.892C63.426 10.892 63.7438 10.8121 64.0669 10.6523C64.3936 10.4925 64.6671 10.2475 64.8873 9.91726C65.111 9.587 65.2228 9.16619 65.2228 8.65483ZM74.5779 5.65057L73.4486 5.97017C73.3776 5.78196 73.2728 5.59908 73.1343 5.42152C72.9994 5.24041 72.8147 5.09126 72.5803 4.97408C72.346 4.85689 72.0459 4.7983 71.6801 4.7983C71.1794 4.7983 70.7622 4.91371 70.4284 5.14453C70.0981 5.3718 69.933 5.66122 69.933 6.01278C69.933 6.32528 70.0466 6.57209 70.2739 6.7532C70.5012 6.9343 70.8563 7.08523 71.3392 7.20597L72.5537 7.50426C73.2852 7.68182 73.8303 7.95348 74.189 8.31925C74.5477 8.68146 74.727 9.14844 74.727 9.72017C74.727 10.1889 74.5921 10.608 74.3222 10.9773C74.0558 11.3466 73.683 11.6378 73.2036 11.8509C72.7242 12.0639 72.1666 12.1705 71.531 12.1705C70.6965 12.1705 70.0058 11.9893 69.4589 11.6271C68.912 11.2649 68.5658 10.7358 68.4202 10.0398L69.6134 9.74148C69.727 10.1818 69.9419 10.5121 70.2579 10.7322C70.5775 10.9524 70.9948 11.0625 71.5097 11.0625C72.0956 11.0625 72.5608 10.9382 72.9053 10.6896C73.2533 10.4375 73.4273 10.1357 73.4273 9.78409C73.4273 9.5 73.3279 9.26207 73.129 9.07031C72.9301 8.875 72.6247 8.7294 72.2128 8.63352L70.8492 8.31392C70.0999 8.13636 69.5494 7.86115 69.1979 7.48828C68.8499 7.11186 68.6759 6.64134 68.6759 6.0767C68.6759 5.61506 68.8055 5.20668 69.0647 4.85156C69.3275 4.49645 69.6844 4.21768 70.1354 4.01527C70.5899 3.81286 71.1048 3.71165 71.6801 3.71165C72.4898 3.71165 73.1254 3.8892 73.5871 4.24432C74.0523 4.59943 74.3825 5.06818 74.5779 5.65057ZM81.6797 5.01136L79.9432 1.09091H80.6463L81.8608 3.96733L83.0753 1.09091H83.7784L82.0419 5.01136H81.6797ZM79.8153 5.01136V1.09091H80.4972V5.01136H79.8153ZM83.2244 5.01136V1.09091H83.9062V5.01136H83.2244ZM77.2585 5.01136V1.43182H77.9403V5.01136H77.2585ZM76.0653 1.6875V1.09091H79.1335V1.6875H76.0653ZM90.1345 1.09091H91.7112L95.4186 10.1463H95.5464L99.2538 1.09091H100.831V12H99.5947V3.71165H99.4882L96.0791 12H94.8859L91.4768 3.71165H91.3703V12H90.1345V1.09091ZM103.309 12V3.81818H104.566V12H103.309ZM103.948 2.45455C103.703 2.45455 103.492 2.37109 103.314 2.20419C103.14 2.03729 103.053 1.83665 103.053 1.60227C103.053 1.3679 103.14 1.16726 103.314 1.00035C103.492 0.833452 103.703 0.75 103.948 0.75C104.193 0.75 104.403 0.833452 104.577 1.00035C104.754 1.16726 104.843 1.3679 104.843 1.60227C104.843 1.83665 104.754 2.03729 104.577 2.20419C104.403 2.37109 104.193 2.45455 103.948 2.45455ZM112.664 5.65057L111.535 5.97017C111.464 5.78196 111.359 5.59908 111.22 5.42152C111.085 5.24041 110.901 5.09126 110.666 4.97408C110.432 4.85689 110.132 4.7983 109.766 4.7983C109.265 4.7983 108.848 4.91371 108.514 5.14453C108.184 5.3718 108.019 5.66122 108.019 6.01278C108.019 6.32528 108.133 6.57209 108.36 6.7532C108.587 6.9343 108.942 7.08523 109.425 7.20597L110.64 7.50426C111.371 7.68182 111.916 7.95348 112.275 8.31925C112.634 8.68146 112.813 9.14844 112.813 9.72017C112.813 10.1889 112.678 10.608 112.408 10.9773C112.142 11.3466 111.769 11.6378 111.29 11.8509C110.81 12.0639 110.253 12.1705 109.617 12.1705C108.782 12.1705 108.092 11.9893 107.545 11.6271C106.998 11.2649 106.652 10.7358 106.506 10.0398L107.699 9.74148C107.813 10.1818 108.028 10.5121 108.344 10.7322C108.663 10.9524 109.081 11.0625 109.596 11.0625C110.182 11.0625 110.647 10.9382 110.991 10.6896C111.339 10.4375 111.513 10.1357 111.513 9.78409C111.513 9.5 111.414 9.26207 111.215 9.07031C111.016 8.875 110.711 8.7294 110.299 8.63352L108.935 8.31392C108.186 8.13636 107.635 7.86115 107.284 7.48828C106.936 7.11186 106.762 6.64134 106.762 6.0767C106.762 5.61506 106.891 5.20668 107.151 4.85156C107.413 4.49645 107.77 4.21768 108.221 4.01527C108.676 3.81286 109.191 3.71165 109.766 3.71165C110.576 3.71165 111.211 3.8892 111.673 4.24432C112.138 4.59943 112.468 5.06818 112.664 5.65057ZM120.501 5.65057L119.371 5.97017C119.3 5.78196 119.196 5.59908 119.057 5.42152C118.922 5.24041 118.738 5.09126 118.503 4.97408C118.269 4.85689 117.969 4.7983 117.603 4.7983C117.102 4.7983 116.685 4.91371 116.351 5.14453C116.021 5.3718 115.856 5.66122 115.856 6.01278C115.856 6.32528 115.969 6.57209 116.197 6.7532C116.424 6.9343 116.779 7.08523 117.262 7.20597L118.477 7.50426C119.208 7.68182 119.753 7.95348 120.112 8.31925C120.471 8.68146 120.65 9.14844 120.65 9.72017C120.65 10.1889 120.515 10.608 120.245 10.9773C119.979 11.3466 119.606 11.6378 119.126 11.8509C118.647 12.0639 118.089 12.1705 117.454 12.1705C116.619 12.1705 115.929 11.9893 115.382 11.6271C114.835 11.2649 114.489 10.7358 114.343 10.0398L115.536 9.74148C115.65 10.1818 115.865 10.5121 116.181 10.7322C116.5 10.9524 116.918 11.0625 117.433 11.0625C118.018 11.0625 118.484 10.9382 118.828 10.6896C119.176 10.4375 119.35 10.1357 119.35 9.78409C119.35 9.5 119.251 9.26207 119.052 9.07031C118.853 8.875 118.548 8.7294 118.136 8.63352L116.772 8.31392C116.023 8.13636 115.472 7.86115 115.121 7.48828C114.773 7.11186 114.599 6.64134 114.599 6.0767C114.599 5.61506 114.728 5.20668 114.988 4.85156C115.25 4.49645 115.607 4.21768 116.058 4.01527C116.513 3.81286 117.028 3.71165 117.603 3.71165C118.413 3.71165 119.048 3.8892 119.51 4.24432C119.975 4.59943 120.305 5.06818 120.501 5.65057ZM122.542 12V3.81818H123.799V12H122.542ZM123.181 2.45455C122.936 2.45455 122.725 2.37109 122.547 2.20419C122.373 2.03729 122.286 1.83665 122.286 1.60227C122.286 1.3679 122.373 1.16726 122.547 1.00035C122.725 0.833452 122.936 0.75 123.181 0.75C123.426 0.75 123.636 0.833452 123.81 1.00035C123.987 1.16726 124.076 1.3679 124.076 1.60227C124.076 1.83665 123.987 2.03729 123.81 2.20419C123.636 2.37109 123.426 2.45455 123.181 2.45455ZM129.426 12.1705C128.687 12.1705 128.039 11.9947 127.481 11.6431C126.927 11.2915 126.494 10.7997 126.182 10.1676C125.873 9.53551 125.718 8.79687 125.718 7.9517C125.718 7.09943 125.873 6.35547 126.182 5.71982C126.494 5.08416 126.927 4.59055 127.481 4.23899C128.039 3.88743 128.687 3.71165 129.426 3.71165C130.164 3.71165 130.811 3.88743 131.365 4.23899C131.922 4.59055 132.355 5.08416 132.664 5.71982C132.977 6.35547 133.133 7.09943 133.133 7.9517C133.133 8.79687 132.977 9.53551 132.664 10.1676C132.355 10.7997 131.922 11.2915 131.365 11.6431C130.811 11.9947 130.164 12.1705 129.426 12.1705ZM129.426 11.0412C129.987 11.0412 130.448 10.8974 130.811 10.6097C131.173 10.3221 131.441 9.94389 131.615 9.47514C131.789 9.00639 131.876 8.49858 131.876 7.9517C131.876 7.40483 131.789 6.89524 131.615 6.42294C131.441 5.95064 131.173 5.56889 130.811 5.2777C130.448 4.98651 129.987 4.84091 129.426 4.84091C128.865 4.84091 128.403 4.98651 128.041 5.2777C127.678 5.56889 127.41 5.95064 127.236 6.42294C127.062 6.89524 126.975 7.40483 126.975 7.9517C126.975 8.49858 127.062 9.00639 127.236 9.47514C127.41 9.94389 127.678 10.3221 128.041 10.6097C128.403 10.8974 128.865 11.0412 129.426 11.0412ZM136.309 7.07812V12H135.052V3.81818H136.266V5.09659H136.373C136.565 4.68111 136.856 4.3473 137.247 4.09517C137.637 3.83949 138.141 3.71165 138.759 3.71165C139.313 3.71165 139.798 3.82528 140.214 4.05256C140.629 4.27628 140.952 4.61719 141.183 5.07528C141.414 5.52983 141.529 6.10511 141.529 6.80114V12H140.272V6.88636C140.272 6.24361 140.105 5.7429 139.771 5.38423C139.438 5.02202 138.979 4.84091 138.397 4.84091C137.996 4.84091 137.637 4.92791 137.321 5.10192C137.009 5.27592 136.762 5.52983 136.581 5.86364C136.4 6.19744 136.309 6.60227 136.309 7.07812Z" fill="#C3BAB1"/>
</svg>

<svg xmlns="http://www.w3.org/2000/svg" width="142" height="13" fill="none"><path fill="#C3BAB1" d="M.724 2.263V1.09h8.182v1.172h-3.43V12H4.155V2.263H.725Zm11.308 4.815V12h-1.257V1.09h1.257v4.007h.106c.192-.423.48-.759.863-1.007.387-.252.902-.378 1.545-.378.557 0 1.046.112 1.465.335.419.22.744.56.974 1.018.235.454.352 1.033.352 1.736V12H16.08V6.886c0-.65-.169-1.152-.506-1.507-.334-.359-.797-.538-1.39-.538a2.32 2.32 0 0 0-1.108.26 1.907 1.907 0 0 0-.767.763c-.185.333-.277.738-.277 1.214Zm11.035 5.093c-.788 0-1.468-.175-2.04-.523a3.503 3.503 0 0 1-1.316-1.47c-.305-.632-.458-1.367-.458-2.205 0-.838.153-1.577.459-2.216.308-.643.738-1.143 1.288-1.502.555-.362 1.2-.543 1.94-.543.426 0 .846.07 1.262.213.415.142.794.373 1.134.692.341.316.613.735.816 1.257.202.522.303 1.165.303 1.929v.532h-6.307V7.25h5.029c0-.462-.093-.874-.277-1.236a2.088 2.088 0 0 0-.778-.858c-.334-.21-.728-.314-1.183-.314-.5 0-.933.124-1.3.373-.361.245-.64.564-.836.959a2.817 2.817 0 0 0-.293 1.267v.725c0 .618.107 1.141.32 1.571.217.426.517.751.9.975.384.22.83.33 1.337.33.33 0 .629-.046.895-.138.27-.096.503-.238.698-.426.195-.192.346-.43.453-.714l1.214.34a2.692 2.692 0 0 1-.644 1.087 3.14 3.14 0 0 1-1.119.725 4.15 4.15 0 0 1-1.497.256Zm9.69-.171V1.09h3.814c.76 0 1.386.132 1.88.395.493.26.861.61 1.102 1.05.242.436.363.921.363 1.454 0 .468-.084.855-.25 1.16-.164.306-.38.548-.65.725a2.957 2.957 0 0 1-.869.394v.107c.334.021.67.138 1.007.352.337.213.62.518.847.916.227.397.34.884.34 1.46a2.93 2.93 0 0 1-.372 1.475c-.249.437-.641.783-1.177 1.039-.537.255-1.234.383-2.094.383h-3.941Zm1.32-1.172h2.621c.863 0 1.476-.167 1.838-.5.366-.338.549-.746.549-1.226 0-.369-.094-.71-.283-1.022a2.042 2.042 0 0 0-.804-.757c-.348-.192-.76-.287-1.236-.287h-2.684v3.792Zm0-4.943h2.45c.399 0 .757-.078 1.077-.234.323-.157.579-.377.767-.66.192-.285.288-.619.288-1.002 0-.48-.167-.886-.501-1.22-.334-.338-.863-.506-1.587-.506h-2.493v3.622Zm11.589 6.286c-.739 0-1.387-.176-1.944-.528a3.583 3.583 0 0 1-1.3-1.475c-.31-.632-.463-1.371-.463-2.216 0-.853.154-1.597.463-2.232.312-.636.746-1.13 1.3-1.481.557-.352 1.205-.527 1.944-.527.739 0 1.385.175 1.939.527.557.352.99.845 1.3 1.48.312.636.468 1.38.468 2.233 0 .845-.156 1.584-.468 2.216a3.534 3.534 0 0 1-1.3 1.475c-.554.352-1.2.527-1.94.527Zm0-1.13c.56 0 1.023-.144 1.385-.431.362-.288.63-.666.804-1.135.174-.469.261-.976.261-1.523 0-.547-.087-1.057-.26-1.53a2.577 2.577 0 0 0-.805-1.144c-.362-.291-.824-.437-1.385-.437s-1.023.146-1.385.437c-.362.29-.63.673-.804 1.145a4.388 4.388 0 0 0-.261 1.529c0 .547.087 1.054.26 1.523.175.469.443.847.805 1.135.362.287.824.431 1.385.431Zm6.883-3.963V12h-1.257V3.818h1.215v1.279h.106c.192-.416.483-.75.874-1.002.39-.256.895-.383 1.513-.383.553 0 1.038.113 1.454.34.415.224.738.565.97 1.023.23.455.345 1.03.345 1.726V12h-1.257V6.886c0-.642-.167-1.143-.5-1.502-.334-.362-.792-.543-1.375-.543-.4 0-.76.087-1.076.26-.312.175-.559.429-.74.763-.181.333-.272.738-.272 1.214Zm12.674 1.577V3.818h1.257V12h-1.257v-1.385h-.085c-.192.415-.49.769-.895 1.06-.405.288-.916.431-1.534.431-.512 0-.966-.111-1.364-.335-.398-.227-.71-.568-.938-1.023-.227-.458-.34-1.035-.34-1.731V3.818h1.257v5.114c0 .596.167 1.072.5 1.427.338.355.767.533 1.29.533.312 0 .63-.08.953-.24.327-.16.6-.404.82-.735.224-.33.336-.75.336-1.262Zm9.355-3.004-1.13.32a2.097 2.097 0 0 0-.314-.55 1.525 1.525 0 0 0-.554-.447c-.234-.117-.534-.176-.9-.176-.5 0-.918.116-1.252.347-.33.227-.495.516-.495.868 0 .312.114.56.34.74.228.181.583.332 1.066.453l1.215.298c.731.178 1.276.45 1.635.815.359.362.538.83.538 1.401 0 .469-.135.888-.405 1.257-.266.37-.639.66-1.118.874-.48.213-1.037.32-1.673.32-.835 0-1.525-.182-2.072-.544-.547-.362-.893-.891-1.039-1.587l1.193-.299c.114.44.329.771.645.991.32.22.737.33 1.252.33.586 0 1.05-.124 1.395-.372.348-.252.522-.554.522-.906 0-.284-.1-.522-.298-.714-.199-.195-.504-.34-.916-.436l-1.364-.32c-.75-.178-1.3-.453-1.651-.826-.348-.376-.522-.847-.522-1.411 0-.462.13-.87.389-1.225.263-.356.62-.634 1.07-.837.455-.202.97-.303 1.545-.303.81 0 1.445.177 1.907.532.465.355.795.824.99 1.407Zm7.102-.64-1.737-3.92h.703l1.215 2.876 1.214-2.876h.703l-1.736 3.92h-.362Zm-1.865 0v-3.92h.682v3.92h-.682Zm3.41 0v-3.92h.681v3.92h-.682Zm-5.966 0v-3.58h.681v3.58h-.681Zm-1.194-3.324v-.596h3.069v.597h-3.069Zm14.07-.596h1.576l3.708 9.055h.127l3.708-9.055h1.577V12h-1.236V3.712h-.107L96.08 12h-1.193l-3.41-8.288h-.106V12h-1.236V1.09ZM103.309 12V3.818h1.257V12h-1.257Zm.639-9.545a.895.895 0 0 1-.634-.25.804.804 0 0 1-.261-.603c0-.234.087-.435.261-.602a.895.895 0 0 1 .634-.25c.245 0 .455.083.629.25a.798.798 0 0 1 .266.602.798.798 0 0 1-.266.602.877.877 0 0 1-.629.25Zm8.716 3.196-1.129.32a2.086 2.086 0 0 0-.315-.55 1.52 1.52 0 0 0-.554-.447c-.234-.117-.534-.176-.9-.176-.501 0-.918.116-1.252.347-.33.227-.495.516-.495.868 0 .312.114.56.341.74.227.181.582.332 1.065.453l1.215.298c.731.178 1.276.45 1.635.815.359.362.538.83.538 1.401 0 .469-.135.888-.405 1.257-.266.37-.639.66-1.118.874-.48.213-1.037.32-1.673.32-.835 0-1.525-.182-2.072-.544-.547-.362-.893-.891-1.039-1.587l1.193-.299c.114.44.329.771.645.991.319.22.737.33 1.252.33.586 0 1.051-.124 1.395-.372.348-.252.522-.554.522-.906a.95.95 0 0 0-.298-.714c-.199-.195-.504-.34-.916-.436l-1.364-.32c-.749-.178-1.3-.453-1.651-.826-.348-.376-.522-.847-.522-1.411 0-.462.129-.87.389-1.225a2.64 2.64 0 0 1 1.07-.837c.455-.202.97-.303 1.545-.303.81 0 1.445.177 1.907.532.465.355.795.824.991 1.407Zm7.837 0-1.13.32a2.082 2.082 0 0 0-.314-.55 1.52 1.52 0 0 0-.554-.447c-.234-.117-.534-.176-.9-.176-.501 0-.918.116-1.252.347-.33.227-.495.516-.495.868 0 .312.113.56.341.74.227.181.582.332 1.065.453l1.215.298c.731.178 1.276.45 1.635.815.359.362.538.83.538 1.401 0 .469-.135.888-.405 1.257-.266.37-.639.66-1.119.874-.479.213-1.037.32-1.672.32-.835 0-1.525-.182-2.072-.544-.547-.362-.893-.891-1.039-1.587l1.193-.299c.114.44.329.771.645.991.319.22.737.33 1.252.33.585 0 1.051-.124 1.395-.372.348-.252.522-.554.522-.906a.95.95 0 0 0-.298-.714c-.199-.195-.504-.34-.916-.436l-1.364-.32c-.749-.178-1.3-.453-1.651-.826-.348-.376-.522-.847-.522-1.411 0-.462.129-.87.389-1.225a2.64 2.64 0 0 1 1.07-.837c.455-.202.97-.303 1.545-.303.81 0 1.445.177 1.907.532.465.355.795.824.991 1.407ZM122.542 12V3.818h1.257V12h-1.257Zm.639-9.545a.895.895 0 0 1-.634-.25.804.804 0 0 1-.261-.603c0-.234.087-.435.261-.602a.895.895 0 0 1 .634-.25c.245 0 .455.083.629.25a.798.798 0 0 1 .266.602.798.798 0 0 1-.266.602.877.877 0 0 1-.629.25Zm6.245 9.716c-.739 0-1.387-.176-1.945-.528a3.578 3.578 0 0 1-1.299-1.475c-.309-.632-.464-1.371-.464-2.216 0-.853.155-1.597.464-2.232.312-.636.745-1.13 1.299-1.481.558-.352 1.206-.527 1.945-.527.738 0 1.385.175 1.939.527.557.352.99.845 1.299 1.48.313.636.469 1.38.469 2.233 0 .845-.156 1.584-.469 2.216a3.536 3.536 0 0 1-1.299 1.475c-.554.352-1.201.527-1.939.527Zm0-1.13c.561 0 1.022-.144 1.385-.431.362-.288.63-.666.804-1.135.174-.469.261-.976.261-1.523 0-.547-.087-1.057-.261-1.53a2.578 2.578 0 0 0-.804-1.144c-.363-.291-.824-.437-1.385-.437s-1.023.146-1.385.437a2.572 2.572 0 0 0-.805 1.145 4.388 4.388 0 0 0-.261 1.529c0 .547.087 1.054.261 1.523.174.469.442.847.805 1.135.362.287.824.431 1.385.431Zm6.883-3.963V12h-1.257V3.818h1.214v1.279h.107c.192-.416.483-.75.874-1.002.39-.256.894-.383 1.512-.383.554 0 1.039.113 1.455.34.415.224.738.565.969 1.023.231.455.346 1.03.346 1.726V12h-1.257V6.886c0-.642-.167-1.143-.501-1.502-.333-.362-.792-.543-1.374-.543-.401 0-.76.087-1.076.26a1.869 1.869 0 0 0-.74.763c-.181.333-.272.738-.272 1.214Z"/></svg>
